src/images/GeneFit/D2C1.svg

<svg fill="none" height="100" viewBox="0 0 100 100" width="100" xmlns="http://www.w3.org/2000/svg"><g fill="#ec8539"><path d="m20.8697 34.9999c-.6182.0053-1.2213-.184-1.7181-.5391s-.8602-.8567-1.0352-1.429-.1521-1.184.0652-1.7426c.2174-.5585.6174-1.0336 1.1394-1.3531l28.2235-17.4794c.3155-.2003.6687-.3386 1.0395-.4072.3709-.0685.7521-.0659 1.1218.0078.3698.0736.721.2168 1.0334.4215.3124.2046.5801.4666.7876.7711.2075.3044.3509.6453.4219 1.0033.071.3579.0683.7258-.008 1.0827-.0763.357-.2247.6959-.4367.9974-.212.3016-.4835.5599-.7989.7602l-28.2868 17.4488c-.4593.2942-.9974.4531-1.5486.4576z"/><path d="m34.8263 40.995c-.6088.005-1.2028-.1746-1.6921-.5116s-.8472-.813-1.0196-1.3561-.1498-1.1236.0643-1.6537.608-.9809 1.1222-1.2842l16.3108-9.756c.3106-.19.6585-.3214 1.0238-.3864.3652-.065.7406-.0626 1.1048.0073s.7101.2059 1.0178.4001c.3077.1941.5713.4428.7756.7317.2044.289.3456.6125.4156.9522.0699.3397.0672.6888-.0079 1.0275-.0752.3387-.2213.6604-.4301.9466-.2088.2861-.4762.5313-.7869.7214l-16.373 9.8428c-.4657.2386-.9947.349-1.5253.3184z"/><path d="m54.8697 87.9999c-.6182.0053-1.2213-.184-1.7181-.5391s-.8602-.8567-1.0352-1.429-.1521-1.184.0652-1.7426c.2174-.5585.6174-1.0336 1.1394-1.3531l28.2235-17.4794c.6371-.4045 1.4145-.5482 2.1613-.3994.7468.1487 1.4019.5777 1.821 1.1926.4191.6148.568 1.3652.4139 2.086-.1541.7209-.5986 1.3531-1.2357 1.7576l-28.3183 17.4793c-.4537.2778-.9797.4259-1.517.4271z"/><path d="m52.824 75.9999c-.6084.0053-1.2019-.1862-1.6908-.5458-.4888-.3595-.8465-.8674-1.0187-1.4468s-.1497-1.1987.0642-1.7642c.2139-.5656.6075-1.0465 1.1213-1.37l16.3285-10.4081c.6227-.4096 1.3838-.5567 2.1159-.409.732.1477 1.3749.5781 1.7873 1.1965.4125.6185.5606 1.3743.4119 2.1012-.1487.7268-.5822 1.3653-1.205 1.7748l-16.4217 10.439c-.4458.2828-.9639.4329-1.4929.4324z"/><path d="m61.0309 11.6603c1.0215 1.6561 1.6015 3.5508 1.6835 5.5.0821 1.9493-.3366 3.8868-1.2153 5.6245l-8.9902 18.2152h7.0236l7.5855-15.3474c1.3482-2.6937 1.9909-5.6909 1.8669-8.7063-.1239-3.0154-1.0105-5.9486-2.5751-8.52021-1.5647-2.57161-3.7554-4.69603-6.3635-6.17097-2.6081-1.474945-5.5468-2.25129362-8.5363-2.25512h-16.3884l-3.1216 6.30284h19.4164c1.9221-.00894 3.8146.47862 5.4974 1.41633 1.6828.93772 3.1001 2.29443 4.1171 3.94113z"/><path d="m97.1378 58.8817c-1.1604-3.4258-3.3864-6.405-6.3622-8.5151-2.9759-2.1102-6.5507-3.2443-10.2176-3.2415h-57.9503c-1.5086.0094-3.0035-.282-4.3948-.8567-1.3912-.5747-2.6499-1.4207-3.7004-2.4872-1.0504-1.0665-1.8708-2.3313-2.4117-3.7183s-.7912-2.8675-.7358-4.3523c.0737-1.674.5269-3.3106 1.3264-4.7897l13.4533-26.40562c.3769-.73827.4406-1.59375.1771-2.37826-.2636-.78451-.8328-1.433774-1.5824-1.804969-.7496-.3711946-1.6183-.433912-2.4148-.174353-.7966.259558-1.4559.82013-1.8328 1.558392l-13.39014 26.25011c-1.12122 2.0734-1.81053 4.3465-2.02745 6.6858-.21693 2.3394.0429 4.6978.76423 6.9369 1.16549 3.441 3.40579 6.431 6.40056 8.5425 2.9949 2.1115 6.5909 3.2365 10.274 3.2141h24.0012l-10.8637 21.3671c-1.8249 3.5809-2.3501 7.669-1.4883 11.5847.8619 3.9156 3.0587 7.4227 6.2254 9.9379 3.091 2.4824 6.9703 3.8148 10.9584 3.7634h16.5798l3.158-6.2204h-19.6746c-1.9446.0175-3.8608-.4593-5.5636-1.3843s-3.1346-2.2668-4.1569-3.896c-1.0224-1.6291-1.6008-3.4904-1.6793-5.404-.0786-1.9136.3453-3.8148 1.2308-5.5199l12.3164-24.2285h26.9698c2.4522-.0445 4.8468.7343 6.7898 2.2082 2.0682 1.5789 3.5143 3.817 4.0905 6.3308.5761 2.5139.2465 5.1468-.9324 7.4475l-13.0112 25.5658c-.3769.7383-.4406 1.5938-.177 2.3783.2635.7845.8327 1.4338 1.5823 1.805.7497.3712 1.6183.4339 2.4149.1743.7966-.2595 1.4558-.8201 1.8327-1.5584l12.8217-25.1926c1.1109-2.0777 1.7892-4.3529 1.9953-6.6922s-.0643-4.6955-.7952-6.9305z"/></g></svg>

<svg width="100" height="100" viewBox="0 0 100 100" fill="none" xmlns="http://www.w3.org/2000/svg">
<path d="M20.8697 34.9999C20.2515 35.0052 19.6484 34.8159 19.1516 34.4608C18.6548 34.1057 18.2914 33.6041 18.1164 33.0318C17.9414 32.4595 17.9643 31.8478 18.1816 31.2892C18.399 30.7307 18.799 30.2556 19.321 29.9361L47.5445 12.4567C47.86 12.2564 48.2132 12.1181 48.584 12.0495C48.9549 11.981 49.3361 11.9836 49.7058 12.0573C50.0756 12.1309 50.4268 12.2741 50.7392 12.4788C51.0516 12.6834 51.3193 12.9454 51.5268 13.2499C51.7343 13.5543 51.8777 13.8952 51.9487 14.2532C52.0197 14.6111 52.017 14.979 51.9407 15.3359C51.8644 15.6929 51.716 16.0318 51.504 16.3333C51.292 16.6349 51.0205 16.8932 50.7051 17.0935L22.4183 34.5423C21.959 34.8365 21.4209 34.9954 20.8697 34.9999V34.9999Z" fill="#EC8539"/>
<path d="M34.8263 40.995C34.2175 41 33.6235 40.8204 33.1342 40.4834C32.6449 40.1464 32.287 39.6704 32.1146 39.1273C31.9422 38.5842 31.9648 38.0037 32.1789 37.4736C32.393 36.9435 32.7869 36.4927 33.3011 36.1894L49.6119 26.4334C49.9225 26.2434 50.2704 26.112 50.6357 26.047C51.0009 25.982 51.3763 25.9844 51.7405 26.0543C52.1047 26.1242 52.4506 26.2602 52.7583 26.4544C53.066 26.6485 53.3296 26.8972 53.5339 27.1861C53.7383 27.4751 53.8795 27.7986 53.9495 28.1383C54.0194 28.478 54.0167 28.8271 53.9416 29.1658C53.8664 29.5045 53.7203 29.8262 53.5115 30.1124C53.3027 30.3985 53.0353 30.6437 52.7246 30.8338L36.3516 40.6766C35.8859 40.9152 35.3569 41.0256 34.8263 40.995V40.995Z" fill="#EC8539"/>
<path d="M54.8697 87.9999C54.2515 88.0052 53.6484 87.8159 53.1516 87.4608C52.6548 87.1057 52.2914 86.6041 52.1164 86.0318C51.9414 85.4595 51.9643 84.8478 52.1816 84.2892C52.399 83.7307 52.799 83.2556 53.321 82.9361L81.5445 65.4567C82.1816 65.0522 82.959 64.9085 83.7058 65.0573C84.4526 65.206 85.1077 65.635 85.5268 66.2499C85.9459 66.8647 86.0948 67.6151 85.9407 68.3359C85.7866 69.0568 85.3421 69.689 84.705 70.0935L56.3867 87.5728C55.933 87.8506 55.407 87.9987 54.8697 87.9999V87.9999Z" fill="#EC8539"/>
<path d="M52.824 75.9999C52.2156 76.0052 51.6221 75.8137 51.1332 75.4541C50.6444 75.0946 50.2867 74.5867 50.1145 74.0073C49.9423 73.4279 49.9648 72.8086 50.1787 72.2431C50.3926 71.6775 50.7862 71.1966 51.3 70.8731L67.6285 60.465C68.2512 60.0554 69.0123 59.9083 69.7444 60.056C70.4764 60.2037 71.1193 60.6341 71.5317 61.2525C71.9442 61.871 72.0923 62.6268 71.9436 63.3537C71.7949 64.0805 71.3614 64.719 70.7386 65.1285L54.3169 75.5675C53.8711 75.8503 53.353 76.0004 52.824 75.9999V75.9999Z" fill="#EC8539"/>
<path d="M61.0309 11.6603C62.0524 13.3164 62.6324 15.2111 62.7144 17.1603C62.7965 19.1096 62.3778 21.0471 61.4991 22.7848L52.5089 41H59.5325L67.118 25.6526C68.4662 22.9589 69.1089 19.9617 68.9849 16.9463C68.861 13.9309 67.9744 10.9977 66.4098 8.42609C64.8451 5.85448 62.6544 3.73006 60.0463 2.25512C57.4382 0.780175 54.4995 0.00382638 51.51 0H35.1216L32 6.30284H51.4164C53.3385 6.2939 55.231 6.78146 56.9138 7.71917C58.5966 8.65689 60.0139 10.0136 61.0309 11.6603V11.6603Z" fill="#EC8539"/>
<path d="M97.1378 58.8817C95.9774 55.4559 93.7514 52.4767 90.7756 50.3666C87.7997 48.2564 84.2249 47.1223 80.558 47.1251H22.6077C21.0991 47.1345 19.6042 46.8431 18.2129 46.2684C16.8217 45.6937 15.563 44.8477 14.5125 43.7812C13.4621 42.7147 12.6417 41.4499 12.1008 40.0629C11.5599 38.6759 11.3096 37.1954 11.365 35.7106C11.4387 34.0366 11.8919 32.4 12.6914 30.9209L26.1447 4.51528C26.5216 3.77701 26.5853 2.92153 26.3218 2.13702C26.0582 1.35251 25.489 0.703246 24.7394 0.332051C23.9898 -0.0391436 23.1211 -0.101861 22.3246 0.157698C21.528 0.417256 20.8687 0.977828 20.4918 1.71609L7.10166 27.9662C5.98044 30.0396 5.29113 32.3127 5.07421 34.652C4.85728 36.9914 5.11711 39.3498 5.83844 41.5889C7.00393 45.0299 9.24423 48.0199 12.239 50.1314C15.2339 52.2429 18.8299 53.3679 22.513 53.3455H46.5142L35.6505 74.7126C33.8256 78.2935 33.3004 82.3816 34.1622 86.2973C35.0241 90.2129 37.2209 93.72 40.3876 96.2352C43.4786 98.7176 47.3579 100.05 51.346 99.9986H67.9258L71.0838 93.7782H51.4092C49.4646 93.7957 47.5484 93.3189 45.8456 92.3939C44.1428 91.4689 42.711 90.1271 41.6887 88.4979C40.6663 86.8688 40.0879 85.0075 40.0094 83.0939C39.9308 81.1803 40.3547 79.2791 41.2402 77.574L53.5566 53.3455H80.5264C82.9786 53.301 85.3732 54.0798 87.3162 55.5537C89.3844 57.1326 90.8305 59.3707 91.4067 61.8845C91.9828 64.3984 91.6532 67.0313 90.4743 69.332L77.4631 94.8978C77.0862 95.6361 77.0225 96.4916 77.2861 97.2761C77.5496 98.0606 78.1188 98.7099 78.8684 99.0811C79.6181 99.4523 80.4867 99.515 81.2833 99.2554C82.0799 98.9959 82.7391 98.4353 83.116 97.697L95.9377 72.5044C97.0486 70.4267 97.7269 68.1515 97.933 65.8122C98.1391 63.4729 97.8687 61.1167 97.1378 58.8817Z" fill="#EC8539"/>
</svg>
